X: 17930
T: Houseboat, The
R: jig
M: 6/8
K: Emajor
|:fgf cAc|e2e GAB|cAF a2a|ged cde|
fgf cAc|e2e GAB|cAF agf|ecg ffe:|
|:cAF cAF|F=dd cAF|GBe ecB|AcA GcG|
cAF =d2d|cfa c'ba|agf ecB|BgB ffe:|
fac' c'ba|agf ecB|A3 ecB|BAG EGB|
cfa c'ba|agf ecB|BgB gfe|Bce f2e|
fac' c'ba|agf ecB|A3 ecB|BAG EFG|
A3 B2B|cfa c'ba|agf ecB|AAG F3|

